_site/images/icons/verification-data.svg

<svg fill="none" height="64" viewBox="0 0 64 64" width="64" xmlns="http://www.w3.org/2000/svg"><path d="m52 64h-40c-6.628 0-12-5.372-12-12v-40c0-6.628 5.372-12 12-12h40c6.628 0 12 5.372 12 12v40c0 6.628-5.372 12-12 12z" fill="#b7d7d6"/><path clip-rule="evenodd" d="m47 36.0012c0-1.6184-1.2796-2.9304-2.858-2.9304h-8.5741c-1.5784 0-2.858 1.312-2.858 2.9304h-4.287v-4.3956h3.3296c2.5649.0043 4.7545-1.8991 5.1698-4.4943.4154-2.5953-1.0661-5.1164-3.4979-5.9527-1.3407-2.8665-4.3313-4.5193-7.4036-4.0917s-5.5251 2.838-6.072 5.9672c-1.999.6736-3.2256 2.7352-2.8953 4.866.3304 2.1307 2.1201 3.7006 4.2243 3.7055h4.287v11.7217c0 .8092.6398 1.4652 1.429 1.4652h5.7161c0 1.6184 1.2796 2.9304 2.858 2.9304h8.5741c1.5784 0 2.858-1.312 2.858-2.9304v-2.9305c-.0052-.516-.1433-1.0214-.4001-1.4652.2568-.4437.3949-.9492.4001-1.4652zm-25.8553-7.1314c-.8005 0-1.4494-.6735-1.4494-1.5043s.6489-1.5043 1.4494-1.5043c.8004 0 1.4493-.6735 1.4493-1.5043-.0241-2.2176 1.5078-4.1248 3.614-4.4991 2.1061-.3743 4.1622.8952 4.8503 2.9948.1732.5209.6069.9018 1.1305.9929 1.1771.2022 2.0306 1.2741 2.0001 2.5121 0 1.3874-1.0837 2.5122-2.4205 2.5122zm7.3123 12.9179h4.3162c.0053-.4918.1443-.9735.4029-1.3965-.2586-.4229-.3976-.9046-.4029-1.3964h-4.3162zm7.0782 2.7929v-2.793h8.764v2.793zm0-8.7277v2.7929h8.764v-2.7929z" fill="#0b7a76" fill-rule="evenodd"/></svg>

<svg width="64" height="64" viewBox="0 0 64 64" fill="none" xmlns="http://www.w3.org/2000/svg">
<path d="M52 64H12C5.372 64 0 58.628 0 52V12C0 5.372 5.372 0 12 0H52C58.628 0 64 5.372 64 12V52C64 58.628 58.628 64 52 64Z" fill="#B7D7D6"/>
<path fill-rule="evenodd" clip-rule="evenodd" d="M47 36.0012C47 34.3828 45.7204 33.0708 44.142 33.0708H35.5679C33.9895 33.0708 32.7099 34.3828 32.7099 36.0012H28.4229V31.6056H31.7525C34.3174 31.6099 36.507 29.7065 36.9223 27.1113C37.3377 24.516 35.8562 21.9949 33.4244 21.1586C32.0837 18.2921 29.0931 16.6393 26.0208 17.0669C22.9485 17.4945 20.4957 19.9049 19.9488 23.0341C17.9498 23.7077 16.7232 25.7693 17.0535 27.9001C17.3839 30.0308 19.1736 31.6007 21.2778 31.6056H25.5648V43.3273C25.5648 44.1365 26.2046 44.7925 26.9938 44.7925H32.7099C32.7099 46.4109 33.9895 47.7229 35.5679 47.7229H44.142C45.7204 47.7229 47 46.4109 47 44.7925V41.862C46.9948 41.346 46.8567 40.8406 46.5999 40.3968C46.8567 39.9531 46.9948 39.4476 47 38.9316V36.0012ZM21.1447 28.8698C20.3442 28.8698 19.6953 28.1963 19.6953 27.3655C19.6953 26.5347 20.3442 25.8612 21.1447 25.8612C21.9451 25.8612 22.594 25.1877 22.594 24.3569C22.5699 22.1393 24.1018 20.2321 26.208 19.8578C28.3141 19.4835 30.3702 20.753 31.0583 22.8526C31.2315 23.3735 31.6652 23.7544 32.1888 23.8455C33.3659 24.0477 34.2194 25.1196 34.1889 26.3576C34.1889 27.745 33.1052 28.8698 31.7684 28.8698H21.1447ZM28.457 41.7877H32.7732C32.7785 41.2959 32.9175 40.8142 33.1761 40.3912C32.9175 39.9683 32.7785 39.4866 32.7732 38.9948H28.457V41.7877ZM35.5352 44.5806V41.7876H44.2992V44.5806H35.5352ZM35.5352 35.8529V38.6458H44.2992V35.8529H35.5352Z" fill="#0B7A76"/>
</svg>
